X: 23
T: An Dro
M: 2/2
L:1/8
R: An Dro
S: D. Shepherd
C: trad.
K: G
B2 BA G2 D2|G2 A2 Bc d2|B2 BA G2 D2 |G2 A2 B4  :|
|: BABc d3  d|B2 G2 A4  |BABc d3  d|B2 A2 G4  :|
